X:1
T:Title
%%score ( 1 2 ) { 3 | 4 }
L:1/8
Q:1/4=110
M:4/4
K:D
V:1 treble nm="Grand Piano, Soprano"
V:2 treble 
V:3 treble nm="Choir Pad, Doane, 10.10 D"
V:4 bass 
V:1
 [Fd]4 [FA]2 [DF]2 | [FA]3 [GB] [FA]4 | [Ge]4 [Fd]2 c-[Gc] | [Fd]6 z2 | [GB]4 [Ac]2 [GB]2 | %5
w: By~William~Howard~Doane~(1832\-1915) * *|||||
 [FA]3 [EG] [DF]4 | [FA]4 [=F^G]2 [FB]2 | [FA]6 z2 | [Gc]4 [Ge]2 [Gc]2 | [Fd]3 [FA] [FA]4 | %10
w: |||||
 [GB]4 [Ac]2 [GB]2 | [FA]6 z2 | [Fd]4 [FA]2 [DF]2 | [DG]3 [DA] [DB]2 [=Fd]2 | [Fd]4 c2- [Gc]2 | %15
w: |||||
 [Fd]8 |] %16
w: |
V:2
 x8 | x8 | z4 z2 .E2 | x8 | x8 | x8 | x8 | x8 | x8 | x8 | x8 | x8 | x8 | x8 | z4 E2 z2 | x8 |] %16
V:3
 A,4 D2 A,2 | D3 D[K:bass] D4 | B,4 A,2 A,2 | A,6 z2 | D4 D2 D2 | D3 A, A,4 | C4 C2 C2 | C6 z2 | %8
 E4 C2 A,2 | A,3 D D4 | D4 D2 D2 | D6 z2 | A,4 D2 A,2 | G,3 F, G,2 B,2 | A,4 A,4 | A,8 |] %16
V:4
 D,4 D,2 D,2 | D,3 D, D,4 | G,4 z2 A,,2 | D,6 z2 | G,4 G,2 G,2 | D,3 D, D,4 | C,4 C,2 C,2 | %7
 F,6 z2 | [A,,A,]4 [A,,A,]2 A,,2 | D,3 D, D,4 | G,4 G,2 G,2 | D,6 z2 | D,4 D,2 =C,2 | %13
 B,,3 A,, G,,2 ^G,,2 | A,,4 A,,4 | D,8 |] %16

